X: 5
T: Across The Road
Z: benhockenberry
S: https://thesession.org/tunes/8362#setting28530
R: slide
M: 12/8
L: 1/8
K: Dmaj
|:EFG F2D E2F G2A|B2E GFE B2E GFE|
D2F FED E2F G2A|1B2E GFE F2E D3:|2B2E GFE F2E D2d||
|:ded c2d e2d cBA|B2E GFE B2E GFE|
ded c2d e2d cBA|1B2E GFE F2E D2d:|2B2E GFE F2E D3|]
